X: 1633
T: John McKinnon's Set Tune No.18
B: australian traditional tunes wiki
M:2/4
L:1/8
R: Polka
Q: 1/4=100
K:D
V:1 
"D"FA d>A|FA d>e|ff ed|"G"B3G|"A7"Ge ec/B/|Ae ed|cB cB|"D"A3A/G/|
"D"FA d>A|FA d>e|ff ed|"G"B3G|"A7"Ge ec/B/|Ae ec/B/|AA Bc|"D"d2d2||
|:"D"f2ef|edd2|"A7"c2Bc|Bc BA|"D"f2ed|"A7"c2Bc/B/|"A7"AA Bc|"D"d2d2:|
% abcbook-tune_id 6342d53ad1fe9c1b63b05f28


% abcbook-boost 0
% abcbook-tablature 
% abcbook-transpose 
% abcbook-lastupdated 1665324375142
% abcbook-soundfonts 
% abcbook-repeats 1
% NFF Book 2018

